svgs/google_drive.svg

<svg xmlns="http://www.w3.org/2000/svg" width="192" height="192" fill="none" stroke="#000" stroke-linecap="round" stroke-linejoin="round" stroke-width="12" viewBox="0 0 192 192"><path d="M96 30H80.87a12 12 0 0 0-10.348 5.926l-46.917 79.932a12 12 0 0 0 .059 12.249l16.84 28.067A12 12 0 0 0 50.794 162H96m0-132h15.129a12 12 0 0 1 10.349 5.926l46.917 79.932a12 12 0 0 1-.059 12.249l-16.84 28.067a12 12 0 0 1-10.29 5.826H96"/><path d="m59 127 37-62 37 62z"/></svg>

<svg xmlns="http://www.w3.org/2000/svg" width="192" height="192" viewBox="0 0 192 192"><path d="M96,30H80.871C76.615,30 72.676,32.255 70.522,35.926L23.605,115.858C21.383,119.644 21.405,124.342 23.664,128.107L40.504,156.174C42.673,159.788 46.579,162 50.794,162H96" fill-rule="nonZero" stroke-width="12" fill-opacity="0" fill="#000000" stroke="#000000" stroke-linejoin="round"/><path d="M96,30H111.129C115.386,30 119.323,32.255 121.478,35.926L168.395,115.858C170.617,119.644 170.595,124.342 168.336,128.107L151.496,156.174C149.327,159.788 145.421,162 141.206,162H96" fill-rule="nonZero" stroke-width="12" fill-opacity="0" fill="#000000" stroke="#000000" stroke-linejoin="round"/><path d="M59,127L96,65L133,127H96H59Z" fill-rule="nonZero" stroke-width="12" fill-opacity="0" fill="#000000" stroke="#000000" stroke-linejoin="round"/></svg>
